X:1
T:Title
%%score { ( 1 3 4 ) | ( 2 5 ) }
L:1/8
Q:1/4=94
M:4/4
K:Eb
V:1 treble nm="Grand Piano"
V:3 treble 
V:4 treble 
V:2 bass 
V:5 bass 
V:1
 [GB][GB][GB][GB] [_G=A]2 [=GB]2 | [Ac]2 [GB]2 [GB]2 G2 | c2 ec B2 G2 | GG[EF]E [DF]4 | %4
w: Geo.~C.~Stebbins * * * * *||||
 [DA][DA][EA][FA] [=EG]2 [FA]2 | [Fd]2 [DAc]2 [Ac]2 [GB]2 | [GB]2 [_G=A]>[=GB] [Ge][E_A][EB][Ec] | %7
w: |||
 [B,EG]2 [A,DF]2 [G,E]4 | [GB]6 z2 | [EG]6[K:bass] z2 | [Ge]6 z2 | [GB]6 z2 | c2 c>c [Bd]2 [Ac]2 | %13
w: ||||||
 [ce][ce][Bd][Ac] [Ac]2 [GB]2 | [GB]2 [_G=A]>[=GB] [Ge][E_A][EB][Ec] |[M:8/4] [EG]2 [DF]2 E4 z8 |] %16
w: |||
V:2
 [E,E][E,E][E,E][E,E] [E,E]2 [E,E]2 | [E,E]2 [E,E]2 [E,E]2 [E,B,E]2 | %2
 [A,E]2 [A,CA][K:bass][A,E] [G,E]2 [E,B,E]2 | [E,B,E][E,B,E][C,=A,][C,A,] [B,,B,]4 | %4
 [B,,F,][B,,F,][B,,G,][B,,A,] [B,,B,]2 [B,,B,]2 | [B,,B,]2 B,,2 [E,E]2 [E,E]2 | %6
 [E,E]2 [E,E]>[E,E] [E,B,][C,A,][B,,G,][A,,F,] | B,,2 B,,2 E,4 | E,2 E,>E, z G [E,E]2 | %9
 [E,B,]E,E,E, E,2 z2 | [E,B,]2 E,>E, z G [E,B,]2 | [E,E]E,E,E, E,2 z2 | %12
 [A,EA]2 [A,EA]>[A,EA] [A,E]2 [A,E]2 | [A,E][A,E][A,E][A,E] [E,E]2 [E,E]2 | %14
 [E,E]2 [E,E]>[E,E] [E,B,][C,A,][B,,G,][A,,F,] |[M:8/4] [B,,B,]2 [B,,A,]2 [E,G,]4 z8 |] %16
V:3
 x8 | x8 | x8 | x8 | x8 | x8 | x8 | x8 | E2 E>E z B[_G=A][=GB] | z[K:bass] B,B,B, B,2 z2 | %10
 z2 B,>B, z e[Fd][Ge] | z EEE E2 z2 | x8 | x8 | x8 |[M:8/4] x16 |] %16
V:4
 x8 | x8 | x8 | x8 | x8 | x8 | x8 | x8 | z4 E2 z2 | x[K:bass] x7 | z4 B,2 z2 | x8 | x8 | x8 | x8 | %15
[M:8/4] x16 |] %16
V:5
 x8 | x8 | x3[K:bass] x5 | x8 | x8 | x8 | x8 | x8 | z4 E,2 z2 | x8 | z4 E,2 z2 | x8 | x8 | x8 | %14
 x8 |[M:8/4] x16 |] %16

